src/assets/maskRound.svg

<svg fill="none" height="24" viewBox="0 0 25 24" width="25" xmlns="http://www.w3.org/2000/svg"><rect fill="#1c68f3" height="24" rx="12" width="24" x=".078125"/><path clip-rule="evenodd" d="m19.0323 9.27778v3.88892h-11.59104-.4987c.52782 2.3596 2.62258 4.1222 5.12634 4.1222 2.0699 0 3.8603-1.2047 4.7169-2.9555h2.2465v3.2666c0 .7732-.6227 1.4-1.3909 1.4h-11.12743c-.76818 0-1.39092-.6268-1.39092-1.4v-8.32222zm-3.5806 5.05562c-.7376 1.0855-1.9776 1.7978-3.3828 1.7978s-2.64517-.7123-3.38282-1.7978zm-6.34906-4.1223c-1.09002 0-1.99177.8113-2.14175 1.8667h1.18564c.13036-.4062.50915-.7.95611-.7.44697 0 .82576.2938.95616.7h1.1856c-.15-1.0554-1.0517-1.8667-2.14176-1.8667zm5.95006 0c-1.09 0-1.9918.8113-2.1417 1.8667h1.1856c.1304-.4062.5092-.7.9561-.7.447 0 .8258.2938.9561.7h1.1857c-.15-1.0554-1.0518-1.8667-2.1418-1.8667zm2.5887-5.2111c.7682 0 1.3909.6268 1.3909 1.4v1.71111h-13.90925v-1.71111c0-.7732.62274-1.4 1.39092-1.4z" fill="#fff" fill-rule="evenodd"/></svg>

<svg width="25" height="24" viewBox="0 0 25 24" fill="none" xmlns="http://www.w3.org/2000/svg">
<rect x="0.078125" width="24" height="24" rx="12" fill="#1C68F3"/>
<path fill-rule="evenodd" clip-rule="evenodd" d="M19.0323 9.27778V13.1667H7.44126L6.94256 13.1667C7.47038 15.5263 9.56514 17.2889 12.0689 17.2889C14.1388 17.2889 15.9292 16.0842 16.7858 14.3334L19.0323 14.3334V17.6C19.0323 18.3732 18.4096 19 17.6414 19H6.51397C5.74579 19 5.12305 18.3732 5.12305 17.6V9.27778H19.0323ZM15.4517 14.3334C14.7141 15.4189 13.4741 16.1312 12.0689 16.1312C10.6637 16.1312 9.42373 15.4189 8.68608 14.3334H15.4517ZM9.10264 10.2111C8.01262 10.2111 7.11087 11.0224 6.96089 12.0778L8.14653 12.0778C8.27689 11.6716 8.65568 11.3778 9.10264 11.3778C9.54961 11.3778 9.9284 11.6716 10.0588 12.0778L11.2444 12.0778C11.0944 11.0224 10.1927 10.2111 9.10264 10.2111ZM15.0527 10.2111C13.9627 10.2111 13.0609 11.0224 12.911 12.0778L14.0966 12.0778C14.227 11.6716 14.6058 11.3778 15.0527 11.3778C15.4997 11.3778 15.8785 11.6716 16.0088 12.0778L17.1945 12.0778C17.0445 11.0224 16.1427 10.2111 15.0527 10.2111ZM17.6414 5C18.4096 5 19.0323 5.6268 19.0323 6.4V8.11111H5.12305V6.4C5.12305 5.6268 5.74579 5 6.51397 5H17.6414Z" fill="white"/>
</svg>
